**kern
*clefG2
*k[f#c#]
8ff#
8cc#
=
4dd
4r
8a
8a
=
8bL
8ff#J
4ee
4dd
=
8cc#L
8f#J
4a.
8dd
=
8cc#.L
16bJ
8a
8cc#
=
8ee
8a
=
2dd
8a
8a
=
8bL
8ff#J
4ee
4dd
=
*-